X: 16
T: Dusty Windowsills
C: Johnny Harling
Z: TJ
S: https://thesession.org/tunes/29#setting45718
R: jig
M: 6/8
L: 1/8
K: Ador
|:A2B cBA|eAB cBA|~GAG EGG|DGG EFG|
A2B cBA|e2d efg|age dBG|1 ABA A2E:|2 ABA A2g||
|:~aba age|dBd ~gag|~gag gfe|dBA G2G|
EGG DGG|EFG ABc|Bed BAG|1 EFG A2g:|2 EFG A2G||
|:~ABA gAf|~ABA gdB|~GAG eGd|~GAG edB|
~ABA gAf|~ABA efg|age dBG|EFG A3:|

